static/img/kroki/2f8b2f82e803536c54666abf95c365d8.svg

<?xml version="1.0" encoding="us-ascii" standalone="no"?><svg xmlns="http://www.w3.org/2000/svg" xmlns:xlink="http://www.w3.org/1999/xlink" contentStyleType="text/css" height="374px" preserveAspectRatio="none" style="width:315px;height:374px;" version="1.1" viewBox="0 0 315 374" width="315px" zoomAndPan="magnify"><defs/><g><!--class database--><g id="elem_database"><rect codeLine="23" fill="#3D176E" height="39.7891" id="database" rx="2.5" ry="2.5" style="stroke:#000D19;stroke-width:0.5;" width="117" x="7" y="167.79"/><ellipse cx="22" cy="187.6845" fill="#ADD1B2" rx="11" ry="11" style="stroke:#181818;stroke-width:1.0;"/><path d="M24.9688,193.3252 Q24.3906,193.622 23.75,193.7627 Q23.1094,193.9189 22.4063,193.9189 Q19.9063,193.9189 18.5781,192.2783 Q17.2656,190.622 17.2656,187.497 Q17.2656,184.372 18.5781,182.7158 Q19.9063,181.0595 22.4063,181.0595 Q23.1094,181.0595 23.75,181.2158 Q24.4063,181.372 24.9688,181.6689 L24.9688,184.3877 Q24.3438,183.8095 23.75,183.5439 Q23.1563,183.2627 22.5313,183.2627 Q21.1875,183.2627 20.5,184.3408 Q19.8125,185.4033 19.8125,187.497 Q19.8125,189.5908 20.5,190.6689 Q21.1875,191.7314 22.5313,191.7314 Q23.1563,191.7314 23.75,191.4658 Q24.3438,191.1845 24.9688,190.6064 L24.9688,193.3252 Z " fill="#000000"/><text fill="#D9B8FF" font-family="Helvetica" font-size="17" lengthAdjust="spacing" textLength="75" x="41" y="193.5698">database</text></g><!--class gcp_resource--><g id="elem_gcp_resource"><rect codeLine="26" fill="#3D176E" height="39.7891" id="gcp_resource" rx="2.5" ry="2.5" style="stroke:#000D19;stroke-width:0.5;" width="150" x="158.5" y="167.79"/><ellipse cx="173.5" cy="187.6845" fill="#ADD1B2" rx="11" ry="11" style="stroke:#181818;stroke-width:1.0;"/><path d="M176.4688,193.3252 Q175.8906,193.622 175.25,193.7627 Q174.6094,193.9189 173.9063,193.9189 Q171.4063,193.9189 170.0781,192.2783 Q168.7656,190.622 168.7656,187.497 Q168.7656,184.372 170.0781,182.7158 Q171.4063,181.0595 173.9063,181.0595 Q174.6094,181.0595 175.25,181.2158 Q175.9063,181.372 176.4688,181.6689 L176.4688,184.3877 Q175.8438,183.8095 175.25,183.5439 Q174.6563,183.2627 174.0313,183.2627 Q172.6875,183.2627 172,184.3408 Q171.3125,185.4033 171.3125,187.497 Q171.3125,189.5908 172,190.6689 Q172.6875,191.7314 174.0313,191.7314 Q174.6563,191.7314 175.25,191.4658 Q175.8438,191.1845 176.4688,190.6064 L176.4688,193.3252 Z " fill="#000000"/><text fill="#D9B8FF" font-family="Helvetica" font-size="17" lengthAdjust="spacing" textLength="108" x="192.5" y="193.5698">gcp_resource</text></g><!--class gcp_sql_database_instance--><g id="elem_gcp_sql_database_instance"><rect codeLine="29" fill="#3D176E" height="39.7891" id="gcp_sql_database_instance" rx="2.5" ry="2.5" style="stroke:#000D19;stroke-width:0.5;" width="265" x="16" y="328.58"/><ellipse cx="31" cy="348.4745" fill="#ADD1B2" rx="11" ry="11" style="stroke:#181818;stroke-width:1.0;"/><path d="M33.9688,354.1152 Q33.3906,354.412 32.75,354.5527 Q32.1094,354.7089 31.4063,354.7089 Q28.9063,354.7089 27.5781,353.0683 Q26.2656,351.412 26.2656,348.287 Q26.2656,345.162 27.5781,343.5058 Q28.9063,341.8495 31.4063,341.8495 Q32.1094,341.8495 32.75,342.0058 Q33.4063,342.162 33.9688,342.4589 L33.9688,345.1777 Q33.3438,344.5995 32.75,344.3339 Q32.1563,344.0527 31.5313,344.0527 Q30.1875,344.0527 29.5,345.1308 Q28.8125,346.1933 28.8125,348.287 Q28.8125,350.3808 29.5,351.4589 Q30.1875,352.5214 31.5313,352.5214 Q32.1563,352.5214 32.75,352.2558 Q33.3438,351.9745 33.9688,351.3964 L33.9688,354.1152 Z " fill="#000000"/><text fill="#D9B8FF" font-family="Helvetica" font-size="17" lengthAdjust="spacing" textLength="223" x="50" y="354.3598">gcp_sql_database_instance</text></g><!--class resource--><g id="elem_resource"><rect codeLine="32" fill="#3D176E" height="39.7891" id="resource" rx="2.5" ry="2.5" style="stroke:#000D19;stroke-width:0.5;" width="113" x="92" y="7"/><ellipse cx="107" cy="26.8945" fill="#ADD1B2" rx="11" ry="11" style="stroke:#181818;stroke-width:1.0;"/><path d="M109.9688,32.5352 Q109.3906,32.832 108.75,32.9727 Q108.1094,33.1289 107.4063,33.1289 Q104.9063,33.1289 103.5781,31.4883 Q102.2656,29.832 102.2656,26.707 Q102.2656,23.582 103.5781,21.9258 Q104.9063,20.2695 107.4063,20.2695 Q108.1094,20.2695 108.75,20.4258 Q109.4063,20.582 109.9688,20.8789 L109.9688,23.5977 Q109.3438,23.0195 108.75,22.7539 Q108.1563,22.4727 107.5313,22.4727 Q106.1875,22.4727 105.5,23.5508 Q104.8125,24.6133 104.8125,26.707 Q104.8125,28.8008 105.5,29.8789 Q106.1875,30.9414 107.5313,30.9414 Q108.1563,30.9414 108.75,30.6758 Q109.3438,30.3945 109.9688,29.8164 L109.9688,32.5352 Z " fill="#000000"/><text fill="#D9B8FF" font-family="Helvetica" font-size="17" lengthAdjust="spacing" textLength="71" x="126" y="32.7798">resource</text></g><!--reverse link resource to database--><g id="link_resource_database"><path codeLine="35" d="M130.1529,63.0028 C114.2029,93.5228 91.52,136.9 75.55,167.46 " fill="none" id="resource-backto-database" style="stroke:#FFAF37;stroke-width:2.0;"/><polygon fill="none" points="138.49,47.05,124.8353,60.2238,135.4705,65.7819,138.49,47.05" style="stroke:#FFAF37;stroke-width:2.0;"/></g><!--reverse link resource to gcp_resource--><g id="link_resource_gcp_resource"><path codeLine="36" d="M167.2459,62.9188 C183.5859,93.4388 206.85,136.9 223.21,167.46 " fill="none" id="resource-backto-gcp_resource" style="stroke:#FFAF37;stroke-width:2.0;"/><polygon fill="none" points="158.75,47.05,161.9563,65.7508,172.5355,60.0868,158.75,47.05" style="stroke:#FFAF37;stroke-width:2.0;"/></g><!--reverse link database to gcp_sql_database_instance--><g id="link_database_gcp_sql_database_instance"><path codeLine="37" d="M83.8471,223.7928 C99.7971,254.3128 122.48,297.69 138.45,328.25 " fill="none" id="database-backto-gcp_sql_database_instance" style="stroke:#FFAF37;stroke-width:2.0;"/><polygon fill="none" points="75.51,207.84,78.5295,226.5719,89.1647,221.0138,75.51,207.84" style="stroke:#FFAF37;stroke-width:2.0;"/></g><!--reverse link gcp_resource to gcp_sql_database_instance--><g id="link_gcp_resource_gcp_sql_database_instance"><path codeLine="38" d="M214.7541,223.7088 C198.4141,254.2288 175.15,297.69 158.79,328.25 " fill="none" id="gcp_resource-backto-gcp_sql_database_instance" style="stroke:#FFAF37;stroke-width:2.0;"/><polygon fill="none" points="223.25,207.84,209.4645,220.8768,220.0437,226.5408,223.25,207.84" style="stroke:#FFAF37;stroke-width:2.0;"/></g><!--SRC=[XP1BRy8m48Jl-HMME4U2eXQGUW6aghsWglIEDl4QB18xtTqKqST_RocGEWcFesU-zSpkocfKc1UoLJdc2H97lBQk089SZOdyPkepJwfZ39Z-e6a-U2TNWHdag1unUqUnAJI9rvLDrmwPrKrWJI1TBycNJk-_5mB7lnOw2QXf1inZ4R99AHYKqQDaQ4oJR7xQwUlUu0vRc2UDT42wtQxkZPh8rQYBUrV4t7wWweL7ctd1LirMn1zriUME24gs5ZtwPpi-WzRMBTLjeBtiEv53gkdp5MY_sT46CWvZM93GoxR0QMih70sr6Po4dyx1KRexdT8Wa02Z-eoYxuEsJ8i58VkIqfRERzdYEBEmZWLS7QeFLg_xhpYEgxIc7YP6LQL_xsHgLEjv3Vu1]--></g></svg>

<svg xmlns="http://www.w3.org/2000/svg" width="315" height="374" viewBox="0 0 315 374"><rect width="117" height="39.789" x="7" y="167.79" fill="#3D176E" rx="2.5" ry="2.5" style="stroke:#000d19;stroke-width:.5"/><circle cx="22" cy="187.685" r="11" fill="#ADD1B2" style="stroke:#181818;stroke-width:1"/><path d="M24.969 193.325q-.578.297-1.219.438-.64.156-1.344.156-2.5 0-3.828-1.64-1.312-1.657-1.312-4.782t1.312-4.781q1.328-1.656 3.828-1.656.703 0 1.344.156.656.156 1.219.453v2.719q-.625-.578-1.219-.844-.594-.281-1.219-.281-1.343 0-2.031 1.078-.687 1.062-.687 3.156t.687 3.172q.688 1.062 2.031 1.062.625 0 1.219-.265.594-.281 1.219-.86z"/><text x="41" y="193.57" fill="#D9B8FF" font-family="Helvetica" font-size="17" textLength="75">database</text><rect width="150" height="39.789" x="158.5" y="167.79" fill="#3D176E" rx="2.5" ry="2.5" style="stroke:#000d19;stroke-width:.5"/><circle cx="173.5" cy="187.685" r="11" fill="#ADD1B2" style="stroke:#181818;stroke-width:1"/><path d="M176.469 193.325q-.578.297-1.219.438-.64.156-1.344.156-2.5 0-3.828-1.64-1.312-1.657-1.312-4.782t1.312-4.781q1.328-1.656 3.828-1.656.703 0 1.344.156.656.156 1.219.453v2.719q-.625-.578-1.219-.844-.594-.281-1.219-.281-1.344 0-2.031 1.078-.687 1.062-.687 3.156t.687 3.172q.688 1.062 2.031 1.062.625 0 1.219-.265.594-.281 1.219-.86z"/><text x="192.5" y="193.57" fill="#D9B8FF" font-family="Helvetica" font-size="17" textLength="108">gcp_resource</text><rect width="265" height="39.789" x="16" y="328.58" fill="#3D176E" rx="2.5" ry="2.5" style="stroke:#000d19;stroke-width:.5"/><circle cx="31" cy="348.474" r="11" fill="#ADD1B2" style="stroke:#181818;stroke-width:1"/><path d="M33.969 354.115q-.578.297-1.219.438-.64.156-1.344.156-2.5 0-3.828-1.64-1.312-1.657-1.312-4.782t1.312-4.781q1.328-1.656 3.828-1.656.703 0 1.344.156.656.156 1.219.453v2.719q-.625-.579-1.219-.844-.594-.281-1.219-.281-1.343 0-2.031 1.078-.687 1.062-.687 3.156t.687 3.172q.688 1.062 2.031 1.062.625 0 1.219-.265.594-.281 1.219-.86z"/><text x="50" y="354.36" fill="#D9B8FF" font-family="Helvetica" font-size="17" textLength="223">gcp_sql_database_instance</text><rect width="113" height="39.789" x="92" y="7" fill="#3D176E" rx="2.5" ry="2.5" style="stroke:#000d19;stroke-width:.5"/><circle cx="107" cy="26.895" r="11" fill="#ADD1B2" style="stroke:#181818;stroke-width:1"/><path d="M109.969 32.535q-.578.297-1.219.438-.64.156-1.344.156-2.5 0-3.828-1.64-1.312-1.657-1.312-4.782t1.312-4.781q1.328-1.656 3.828-1.656.703 0 1.344.156.656.156 1.219.453v2.719q-.625-.578-1.219-.844-.594-.281-1.219-.281-1.344 0-2.031 1.078-.687 1.062-.687 3.156t.687 3.172q.688 1.062 2.031 1.062.625 0 1.219-.265.594-.281 1.219-.86z"/><text x="126" y="32.78" fill="#D9B8FF" font-family="Helvetica" font-size="17" textLength="71">resource</text><g fill="none"><path d="M130.153 63.003C114.203 93.523 91.52 136.9 75.55 167.46" style="stroke:#ffaf37;stroke-width:2"/><path d="m138.49 47.05-13.655 13.174 10.635 5.558z" style="stroke:#ffaf37;stroke-width:2"/></g><path fill="none" d="M167.246 62.919c16.34 30.52 39.604 73.981 55.964 104.541M158.75 47.05l3.206 18.7 10.58-5.663z" style="stroke:#ffaf37;stroke-width:2"/><g fill="none"><path d="M83.847 223.793c15.95 30.52 38.633 73.897 54.603 104.457" style="stroke:#ffaf37;stroke-width:2"/><path d="m75.51 207.84 3.02 18.732 10.635-5.558z" style="stroke:#ffaf37;stroke-width:2"/></g><path fill="none" d="M214.754 223.709c-16.34 30.52-39.604 73.981-55.964 104.541m64.46-120.41-13.786 13.037 10.58 5.664z" style="stroke:#ffaf37;stroke-width:2"/></svg>
